actions/22x22-light/folder-new.svg

<svg xmlns="http://www.w3.org/2000/svg" viewBox="0 0 22 22">
 <defs id="defs3051">
   <style type="text/css" id="current-color-scheme">
     .ColorScheme-Text {
       color:#4d4d4d;
     }
     </style>
 </defs>
   <path
      style="fill:currentColor;fill-opacity:1;stroke:none"
      d="m3.28772 4.20104c-.159712 0-.28772.135568-.28772.304704v12.458336l16 .03592v-10.691072c0-.169144-.12948-.306264-.2892-.306264h-8.672808c-.293832.02752-.331376-.01352-.476576-.21876-.205912-.291832-.51732-1.077888-.720032-1.36256-.162704-.249232-.189024-.22032-.458872-.22032h-5.094792zm7.15308 4.84708h1.11988c-.0016.5686 0 2.065712 0 2.065712h1.816304v1.185984h-1.816304s-.000656 1.494576-.0016 2.065712h-1.11988c.000752-.571136.0016-2.065712.0016-2.065712s-1.216416-.0008-1.817784 0v-1.184424c.601368-.0016 1.817784-.0016 1.817784-.0016s-.00076-1.497152 0-2.065712z"
      class="ColorScheme-Text" />
</svg>

<?xml version="1.0" encoding="UTF-8" standalone="no"?>
<svg
   xmlns:dc="http://purl.org/dc/elements/1.1/"
   xmlns:cc="http://creativecommons.org/ns#"
   xmlns:rdf="http://www.w3.org/1999/02/22-rdf-syntax-ns#"
   xmlns:svg="http://www.w3.org/2000/svg"
   xmlns="http://www.w3.org/2000/svg"
   xmlns:sodipodi="http://sodipodi.sourceforge.net/DTD/sodipodi-0.dtd"
   xmlns:inkscape="http://www.inkscape.org/namespaces/inkscape"
   viewBox="0 0 22 22"
   id="svg2"
   version="1.1"
   inkscape:version="0.91 r13725"
   sodipodi:docname="folder-new.svg">
  <metadata
     id="metadata10">
    <rdf:RDF>
      <cc:Work
         rdf:about="">
        <dc:format>image/svg+xml</dc:format>
        <dc:type
           rdf:resource="http://purl.org/dc/dcmitype/StillImage" />
      </cc:Work>
    </rdf:RDF>
  </metadata>
  <sodipodi:namedview
     pagecolor="#ffffff"
     bordercolor="#666666"
     borderopacity="1"
     objecttolerance="10"
     gridtolerance="10"
     guidetolerance="10"
     inkscape:pageopacity="0"
     inkscape:pageshadow="2"
     inkscape:window-width="640"
     inkscape:window-height="480"
     id="namedview8"
     showgrid="false"
     inkscape:zoom="28.954545"
     inkscape:cx="4.8524333"
     inkscape:cy="11"
     inkscape:current-layer="svg2" />
  <defs
     id="defs3051">
    <style
       type="text/css"
       id="current-color-scheme">
      .ColorScheme-Text {
        color:#4d4d4d
      }
      </style>
  </defs>
  <path
     style="color:#4d4d4d;fill:currentColor;fill-opacity:1;stroke:none"
     class="ColorScheme-Text"
     d="M 3.28772,4.20104 C 3.128008,4.20104 3,4.336608 3,4.505744 L 3,16.96408 19,17 19,6.308928 C 19,6.139784 18.87052,6.002664 18.7108,6.002664 l -8.672808,0 C 9.74416,6.030184 9.706616,5.989144 9.561416,5.783904 9.355504,5.492072 9.044096,4.706016 8.841384,4.421344 8.67868,4.172112 8.65236,4.201024 8.382512,4.201024 l -5.094792,0 z m 7.15308,4.84708 1.11988,0 c -0.0016,0.5686 0,2.065712 0,2.065712 l 1.816304,0 0,1.185984 -1.816304,0 c 0,0 -6.56e-4,1.494576 -0.0016,2.065712 l -1.11988,0 c 7.52e-4,-0.571136 0.0016,-2.065712 0.0016,-2.065712 0,0 -1.216416,-8e-4 -1.817784,0 l 0,-1.184424 c 0.601368,-0.0016 1.817784,-0.0016 1.817784,-0.0016 0,0 -7.6e-4,-1.497152 0,-2.065712 z"
     id="path6"
     inkscape:connector-curvature="0" />
</svg>
